X:112
T:AIR I. O'er Bogie with my Love.
O:england
B:Joseph Mitchell: "The Highland Fair" (1731)
N:the anacruses for each part are written (GA) in the book
M:C|
L:1/8
K:AMin
(G/A/)|c>d (cA     c)GGA     | cc          (d/c/B/A/     A)Gz
G    |Addc        deg>a     |(g/a/)(g/e/) (g/e/d/c/)   (cA2) ||
(G/A/)|c2  (e/f/)g c2 (e/f/)g| c2          (d/c/)(B/A/) (AG) z
G    |Addc        deg>a     |(g/a/)(g/e/) (g/e/d/c/)   (cA2) |]


